app/icons/aboutsplash.svg

<?xml version="1.0" encoding="UTF-8" standalone="no"?>
<svg
   xmlns:dc="http://purl.org/dc/elements/1.1/"
   xmlns:cc="http://creativecommons.org/ns#"
   xmlns:rdf="http://www.w3.org/1999/02/22-rdf-syntax-ns#"
   xmlns:svg="http://www.w3.org/2000/svg"
   xmlns="http://www.w3.org/2000/svg"
   xmlns:xlink="http://www.w3.org/1999/xlink"
   xmlns:sodipodi="http://sodipodi.sourceforge.net/DTD/sodipodi-0.dtd"
   xmlns:inkscape="http://www.inkscape.org/namespaces/inkscape"
   inkscape:version="1.0 (4035a4fb49, 2020-05-01)"
   sodipodi:docname="theGrades-aboutside.svg"
   id="svg922"
   viewBox="0 0 26.458 89.958"
   version="1.1"
   height="340"
   width="100">
  <metadata
     id="metadata926">
    <rdf:RDF>
      <cc:Work
         rdf:about="">
        <dc:format>image/svg+xml</dc:format>
        <dc:type
           rdf:resource="http://purl.org/dc/dcmitype/StillImage" />
        <dc:title></dc:title>
      </cc:Work>
    </rdf:RDF>
  </metadata>
  <sodipodi:namedview
     inkscape:current-layer="svg922"
     inkscape:window-maximized="0"
     inkscape:window-y="55"
     inkscape:window-x="1065"
     inkscape:cy="128.5197"
     inkscape:cx="50.106705"
     inkscape:zoom="1.1911765"
     showgrid="false"
     id="namedview924"
     inkscape:window-height="987"
     inkscape:window-width="841"
     inkscape:pageshadow="2"
     inkscape:pageopacity="0"
     guidetolerance="10"
     gridtolerance="10"
     objecttolerance="10"
     borderopacity="1"
     bordercolor="#666666"
     pagecolor="#ffffff" />
  <defs
     id="defs914">
    <linearGradient
       id="linearGradient2132"
       inkscape:collect="always">
      <stop
         id="stop2128"
         offset="0"
         style="stop-color:#ffffff;stop-opacity:1;" />
      <stop
         id="stop2130"
         offset="1"
         style="stop-color:#ffffff;stop-opacity:0;" />
    </linearGradient>
    <linearGradient
       gradientUnits="userSpaceOnUse"
       gradientTransform="matrix(0.5,0,0,0.68,0,-112)"
       y2="164.71"
       y1="297"
       x2="52.917"
       id="linearGradient825">
      <stop
         style="stop-color:#ffa016;stop-opacity:1"
         id="stop909"
         offset="0"
         stop-color="#939393" />
      <stop
         style="stop-color:#6fff5e;stop-opacity:1"
         id="stop911"
         offset="1"
         stop-color="#cdcdcd" />
    </linearGradient>
    <linearGradient
       gradientUnits="userSpaceOnUse"
       y2="97.049835"
       x2="-6.4059129"
       y1="13.682766"
       x1="76.483635"
       id="linearGradient2134"
       xlink:href="#linearGradient2132"
       inkscape:collect="always" />
  </defs>
  <rect
     y="-6.7138672e-06"
     width="26.458"
     height="89.958"
     ry="0"
     fill="url(#linearGradient825)"
     opacity="0.88"
     id="rect916"
     style="fill:url(#linearGradient825)"
     x="0" />
  <path
     transform="matrix(0.26458235,0,0,0.26458235,-1.1764706e-4,0)"
     d="M 54.851562 11.59375 L 46.75 11.597656 C 43.866474 11.595047 41.841321 13.100284 40.666016 16.056641 L 7.5566406 101.32617 C 7.1952673 102.13261 7.023075 102.7687 7.0234375 103.21875 C 7.0239232 104.03138 7.2871609 104.75437 7.8261719 105.37891 C 8.4571569 105.9194 9.1817858 106.19286 9.9921875 106.19141 L 14.992188 106.19141 C 17.69509 106.19237 19.459717 105.08795 20.263672 102.8125 L 27.291016 84.839844 L 74.177734 84.839844 L 81.205078 102.8125 C 82.014966 105.065 83.773998 106.18962 86.476562 106.18945 L 91.478516 106.18945 C 92.28979 106.1909 92.95816 105.88813 93.509766 105.39648 C 94.140741 104.76474 94.453117 104.04203 94.453125 103.23242 C 94.45277 102.77612 94.273547 102.15266 93.912109 101.33984 L 60.935547 16.052734 C 59.764475 13.079871 57.734298 11.593436 54.851562 11.59375 z M 95.699219 18.585938 L 93.15625 18.597656 C 92.65396 18.607218 92.212764 18.757544 91.847656 19.136719 C 91.491208 19.544823 91.292459 19.943724 91.292969 20.453125 L 91.296875 33.955078 L 77.804688 33.955078 C 77.302398 33.96464 76.860998 34.114629 76.501953 34.523438 C 76.145505 34.931541 75.95359 35.326667 75.953125 35.830078 L 75.953125 37.958984 C 75.954293 38.46508 76.133688 38.903334 76.498047 39.271484 C 76.865305 39.638818 77.300443 39.821138 77.806641 39.826172 L 91.298828 39.826172 L 91.298828 53.523438 C 91.299996 54.029537 91.48704 54.469535 91.853516 54.833984 C 92.220774 55.201318 92.655908 55.381688 93.162109 55.386719 L 95.708984 55.388672 C 96.211278 55.379223 96.651594 55.230823 97.009766 54.822266 C 97.366214 54.414162 97.564971 54.013309 97.564453 53.503906 L 97.564453 39.806641 L 100 39.806641 L 100 33.931641 L 97.560547 33.931641 L 97.560547 20.443359 C 97.559371 19.937262 97.372335 19.49726 97.005859 19.132812 C 96.63859 18.765449 96.204634 18.588056 95.699219 18.585938 z M 50.800781 24.4375 L 69.449219 72.677734 L 32.015625 72.677734 L 50.800781 24.4375 z "
     style="font-style:normal;font-variant:normal;font-weight:normal;font-stretch:normal;font-size:10.5834px;line-height:1.25;font-family:Contemporary;-inkscape-font-specification:Contemporary;text-align:center;letter-spacing:-0.933983px;word-spacing:0px;text-anchor:middle;opacity:0.635191;fill:url(#linearGradient2134);fill-opacity:1;stroke-width:3.37828"
     id="path852" />
</svg>

<svg width="100" height="340" version="1.1" viewBox="0 0 26.458 89.958" xmlns="http://www.w3.org/2000/svg" xmlns:xlink="http://www.w3.org/1999/xlink">
 <defs>
  <linearGradient id="linearGradient825" x2="52.917" y1="297" y2="164.71" gradientTransform="matrix(.5 0 0 .68 0 -112)" gradientUnits="userSpaceOnUse">
   <stop stop-color="#ffa016" offset="0"/>
   <stop stop-color="#6fff5e" offset="1"/>
  </linearGradient>
  <linearGradient id="linearGradient2134" x1="76.484" x2="-6.4059" y1="13.683" y2="97.05" gradientUnits="userSpaceOnUse">
   <stop stop-color="#fff" offset="0"/>
   <stop stop-color="#fff" stop-opacity="0" offset="1"/>
  </linearGradient>
 </defs>
 <rect y="-6.7139e-6" width="26.458" height="89.958" ry="0" fill="url(#linearGradient825)" opacity=".88"/>
 <path transform="matrix(.26458 0 0 .26458 -.00011765 0)" d="m54.852 11.594-8.1016 0.003906c-2.8835-0.002609-4.9087 1.5026-6.084 4.459l-33.109 85.27c-0.36137 0.80644-0.53357 1.4425-0.5332 1.8926 4.857e-4 0.81263 0.26372 1.5356 0.80273 2.1602 0.63098 0.54049 1.3556 0.81395 2.166 0.8125h5c2.7029 9.6e-4 4.4675-1.1035 5.2715-3.3789l7.0273-17.973h46.887l7.0273 17.973c0.80989 2.2525 2.5689 3.3771 5.2715 3.377h5.002c0.81127 0.00145 1.4796-0.30132 2.0312-0.79297 0.63098-0.63174 0.94335-1.3544 0.94336-2.1641-3.55e-4 -0.4563-0.17958-1.0798-0.54102-1.8926l-32.977-85.287c-1.1711-2.9729-3.2012-4.4593-6.084-4.459zm40.848 6.9922-2.543 0.011718c-0.50229 0.009562-0.94349 0.15989-1.3086 0.53906-0.35645 0.4081-0.5552 0.807-0.55469 1.3164l0.003906 13.502h-13.492c-0.50229 0.009562-0.94369 0.15955-1.3027 0.56836-0.35645 0.4081-0.54836 0.80323-0.54883 1.3066v2.1289c0.001168 0.5061 0.18056 0.94435 0.54492 1.3125 0.36726 0.36733 0.8024 0.54965 1.3086 0.55469h13.492v13.697c0.001168 0.5061 0.18821 0.9461 0.55469 1.3105 0.36726 0.36733 0.80239 0.5477 1.3086 0.55274l2.5469 0.001953c0.50229-0.009449 0.94261-0.15785 1.3008-0.56641 0.35645-0.4081 0.5552-0.80896 0.55469-1.3184v-13.697h2.4355v-5.875h-2.4395v-13.488c-0.001176-0.5061-0.18821-0.9461-0.55469-1.3105-0.36727-0.36736-0.80122-0.54476-1.3066-0.54687zm-44.898 5.8516 18.648 48.24h-37.434l18.785-48.24z" fill="url(#linearGradient2134)" opacity=".63519" stroke-width="3.3783"/>
</svg>
